img/thrift-store.svg

<svg width="452" height="38" fill="none" xmlns="http://www.w3.org/2000/svg"><path d="M18.748 2.316l4.316 2.392-7.228 12.896c.468-.52.988-.832 1.716-.832.468 0 .988.052 1.456.104.468.052.936.052 1.404 0C26.652 16.46 33.516 5.488 35.856.808l4.316 2.236c-2.444 4.628-7.176 11.7-14.612 15.028-4.108 1.82-5.928.884-5.928 3.12 0 4.16 1.612 11.96 4.576 11.96 2.028 0 5.72-2.444 6.812-3.224l-1.248 3.796C26.444 36.324 24.26 37 22.856 37c-5.564 0-7.852-8.06-7.852-13.936 0-1.456.052-2.964.208-4.42l-9.464 18.98-4.836-1.508 17.836-33.8zm28.617 13.208l.832 3.016c-6.344 2.028-11.492 8.216-11.492 12.324 0 2.132 1.248 2.756 2.288 2.756 2.964 0 7.124-4.576 7.124-10.712 0-.676 0-1.352-.104-2.028l4.68-1.3c.156.78.208 1.508.208 2.288 0 7.592-6.5 15.132-13.26 15.132-4.576 0-5.668-2.912-5.668-5.616 0-6.292 6.292-12.636 15.392-15.86zm21.16.208l3.224 1.82-4.628 9.256c-1.092 2.184-1.352 2.756-1.456 3.432 0 .156-.052.312 0 .468.052.26.156.312.364.312 2.184 0 8.424-7.332 12.012-13.52l3.432 1.82-4.888 8.944c-.416.78-1.3 2.444-1.3 3.172 0 .624.312.988.884.988 1.092 0 2.496-.936 5.304-2.236l-1.144 3.536C78.925 34.66 74.921 37 73.101 37c-1.716 0-2.652-1.196-2.652-2.34 0-1.664 1.352-3.848 2.392-5.512l-.468-.364c-7.124 7.54-8.788 8.528-9.932 8.528-1.248 0-2.236-.936-2.236-2.288 0-1.872 2.132-5.616 2.964-6.968l-.572-.208C59.685 31.332 55.473 37 51.73 37c-1.456 0-3.744-.78-3.744-3.38 0-.832.052-1.456.312-2.132l4.056-1.976c-.052.26-.26.988-.26 1.664 0 .676.156 1.56 1.196 1.56 2.34 0 11.18-10.14 15.236-17.004zm32.335 2.496l3.484 1.768-5.564 10.556c-.104.208-.312.676-.312 1.04 0 .208.104.832.78.832.988 0 2.184-.988 4.94-2.236l-1.144 3.536C101.64 34.608 97.168 37 95.556 37c-1.092 0-2.08-.676-2.288-2.028a2.827 2.827 0 010-.936c.156-1.404 1.144-3.016 2.86-5.512l-.208-.26C92.072 31.384 87.34 37 83.908 37c-.936 0-2.288-.572-2.288-2.652 0-1.872 1.248-4.42 8.684-18.356l3.536 1.82-6.084 11.492c-.26.468-.416.78-.468 1.092v.26c.052.52.364.624.572.624 2.704 0 11.128-9.828 13-13.052zm21.654 6.5l-3.328-1.976c.26-.416.728-1.456.728-1.82 0-.364-.416-.78-1.092-.78-2.288 0-8.32 6.76-8.32 11.284 0 .78.572 1.924 2.132 1.924.936 0 2.86-.052 9.88-3.172l-1.144 3.536C116.378 35.96 113.31 37 110.346 37c-3.484 0-5.096-1.82-5.096-4.94 0-6.344 8.84-15.6 15.964-15.6 2.86 0 3.588 2.236 3.588 3.9 0 1.56-1.196 3.328-2.288 4.368zm18.231 0l-3.328-1.976c.26-.416.728-1.456.728-1.82 0-.364-.416-.78-1.092-.78-2.288 0-8.32 6.76-8.32 11.284 0 .78.572 1.924 2.132 1.924.936 0 2.86-.052 9.88-3.172l-1.144 3.536C134.609 35.96 131.541 37 128.577 37c-3.484 0-5.096-1.82-5.096-4.94 0-6.344 8.84-15.6 15.964-15.6 2.86 0 3.588 2.236 3.588 3.9 0 1.56-1.196 3.328-2.288 4.368zm19.478-6.5l3.484 1.768-5.564 10.556c-.104.208-.312.676-.312 1.04 0 .208.104.832.78.832.988 0 2.184-.988 4.94-2.236l-1.144 3.536c-1.404.884-5.876 3.276-7.488 3.276-1.092 0-2.08-.676-2.288-2.028a2.828 2.828 0 010-.936c.156-1.404 1.144-3.016 2.86-5.512l-.208-.26c-3.848 3.12-8.58 8.736-12.012 8.736-.936 0-2.288-.572-2.288-2.652 0-1.872 1.248-4.42 8.684-18.356l3.536 1.82-6.084 11.492c-.26.468-.416.78-.468 1.092v.26c.052.52.364.624.572.624 2.704 0 11.128-9.828 13-13.052zm19.783-2.704l.832 3.016c-6.344 2.028-11.492 8.216-11.492 12.324 0 2.132 1.248 2.756 2.288 2.756 2.964 0 7.124-4.576 7.124-10.712 0-.676 0-1.352-.104-2.028l4.68-1.3c.156.78.208 1.508.208 2.288 0 7.592-6.5 15.132-13.26 15.132-4.576 0-5.668-2.912-5.668-5.616 0-6.292 6.292-12.636 15.392-15.86zm12.58.624l3.588 1.664-4.264 8.216c1.456-.468 4.68-.988 6.136-1.04h.988l3.38-7.124 3.64 1.56-4.784 9.672c-.208.468-1.04 2.236-1.04 2.756 0 .26.052.832.78.832 1.248 0 4.264-1.768 5.824-2.496l-1.04 3.536c-4.992 2.86-6.812 3.276-7.54 3.276-1.82 0-3.172-1.196-3.172-3.068 0-1.3.884-2.756 2.548-6.084-1.924.156-4.992.884-7.176 1.612l-3.848 7.904-4.212-1.3 10.192-19.916zm23.461 0l3.588 1.664-4.264 8.216c1.456-.468 4.68-.988 6.136-1.04h.988l3.38-7.124 3.64 1.56-4.784 9.672c-.208.468-1.04 2.236-1.04 2.756 0 .26.052.832.78.832 1.248 0 4.264-1.768 5.824-2.496l-1.04 3.536c-4.992 2.86-6.812 3.276-7.54 3.276-1.82 0-3.172-1.196-3.172-3.068 0-1.3.884-2.756 2.548-6.084-1.924.156-4.992.884-7.176 1.612l-3.848 7.904-4.212-1.3 10.192-19.916zm22.525-.104l3.536 1.82c-6.604 10.92-7.228 13.156-7.228 14.456 0 1.196.728 1.768 1.404 1.768 2.548 0 5.772-4.836 5.98-6.396v-.104a.224.224 0 00-.208-.208h-.208c-1.612.208-1.82.26-2.028.26-.208 0-.468-.26-.572-.468l-.52-1.196c-.468-1.144 2.912-2.704 4.004-2.704 1.612 0 2.548.208 3.328.936 3.432-.416 7.904-2.808 9.516-5.98l3.38 1.82-4.732 8.476c-.364.624-1.456 2.756-1.456 3.432 0 .572.208.884.832.884.78 0 2.756-.936 5.2-2.652l-1.144 3.536c-1.82 1.508-4.888 3.276-7.228 3.276-1.82 0-2.756-.936-2.756-2.496 0-2.288 3.068-7.54 4.888-9.724l-.312-.26c-2.392 1.04-1.612 1.196-3.952 1.768-.52.156-.988.26-1.196.364-.26.104-.208.26-.208.52-.052 3.38-5.564 9.828-10.972 9.828-2.808 0-5.096-2.132-5.096-4.888 0-3.952 4.784-11.492 7.748-16.068zm39.769 2.184l3.484 1.768-5.564 10.556c-.104.208-.312.676-.312 1.04 0 .208.104.832.78.832.988 0 2.184-.988 4.94-2.236l-1.144 3.536c-1.404.884-5.876 3.276-7.488 3.276-1.092 0-2.08-.676-2.288-2.028a2.827 2.827 0 010-.936c.156-1.404 1.144-3.016 2.86-5.512l-.208-.26c-3.848 3.12-8.58 8.736-12.012 8.736-.936 0-2.288-.572-2.288-2.652 0-1.872 1.248-4.42 8.684-18.356l3.536 1.82-6.084 11.492c-.26.468-.416.78-.468 1.092v.26c.052.52.364.624.572.624 2.704 0 11.128-9.828 13-13.052zM271.685 6.32l4.264-.208c0 1.144.26 3.536 2.86 3.536.572 0 2.652-.312 5.72-4.004l2.08 1.664c-3.432 3.38-5.148 5.304-9.412 5.304-5.044 0-5.46-4.16-5.512-5.2V6.32zm40.083 9.412l3.224 1.82-4.628 9.256c-1.092 2.184-1.352 2.756-1.456 3.432 0 .156-.052.312 0 .468.052.26.156.312.364.312 2.184 0 8.424-7.332 12.012-13.52l3.432 1.82-4.888 8.944c-.416.78-1.3 2.444-1.3 3.172 0 .624.312.988.884.988 1.092 0 2.496-.936 5.304-2.236l-1.144 3.536c-1.404.936-5.408 3.276-7.228 3.276-1.716 0-2.652-1.196-2.652-2.34 0-1.664 1.352-3.848 2.392-5.512l-.468-.364c-7.124 7.54-8.788 8.528-9.932 8.528-1.248 0-2.236-.936-2.236-2.288 0-1.872 2.132-5.616 2.964-6.968l-.572-.208C302.928 31.332 298.716 37 294.972 37c-1.456 0-3.744-.78-3.744-3.38 0-.832.052-1.456.312-2.132l4.056-1.976c-.052.26-.26.988-.26 1.664 0 .676.156 1.56 1.196 1.56 2.34 0 11.18-10.14 15.236-17.004zm33.842 1.924l3.744 1.976-4.576 8.944c-.26.52-1.196 2.548-1.196 3.12 0 .312.156.936.676.936.884 0 4.68-2.028 5.408-2.444l-1.092 3.536c-1.508 1.144-4.888 3.276-6.812 3.276-1.664 0-2.912-1.144-2.912-2.496 0-1.248.78-2.548 1.248-3.744l-.208-.052C338.278 31.852 334.118 37 329.75 37c-1.872 0-4.16-1.508-4.16-5.252 0-4.836 8.424-14.82 14.976-14.82 2.496 0 3.848 1.144 4.472 1.872l.572-1.144zm-4.264 8.112l2.652-4.992a2.957 2.957 0 00-2.34-1.092c-4.004 0-10.816 7.436-10.816 10.972 0 1.768.78 2.236 1.508 2.236 2.236 0 8.008-5.252 8.996-7.124zm13.441-3.848l-1.352-2.236c4.108-2.496 6.76-2.808 8.06-2.808 2.236 0 2.964 1.248 2.964 2.6 0 2.444-2.08 4.264-3.952 6.032-5.2 4.992-5.408 6.188-5.408 6.708 0 .416.416.988 1.144.988 1.196 0 4.888-1.716 7.02-3.016l-1.092 3.536c-1.82 1.248-5.668 3.276-8.372 3.276-2.756 0-3.952-1.508-3.952-3.172 0-1.872 1.3-4.68 6.292-9.464 1.144-1.092 3.224-2.704 3.224-3.536a.5.5 0 00-.364-.468 1.068 1.068 0 00-.572 0c-.884.156-1.612.572-3.64 1.56zm29.366-4.264l3.744 1.976-4.576 8.944c-.26.52-1.196 2.548-1.196 3.12 0 .312.156.936.676.936.884 0 4.68-2.028 5.408-2.444l-1.092 3.536c-1.508 1.144-4.888 3.276-6.812 3.276-1.664 0-2.912-1.144-2.912-2.496 0-1.248.78-2.548 1.248-3.744l-.208-.052c-1.612 1.144-5.772 6.292-10.14 6.292-1.872 0-4.16-1.508-4.16-5.252 0-4.836 8.424-14.82 14.976-14.82 2.496 0 3.848 1.144 4.472 1.872l.572-1.144zm-4.264 8.112l2.652-4.992a2.957 2.957 0 00-2.34-1.092c-4.004 0-10.816 7.436-10.816 10.972 0 1.768.78 2.236 1.508 2.236 2.236 0 8.008-5.252 8.996-7.124zm14.949-3.38l-1.716-2.08c2.288-2.132 5.876-4.108 8.84-4.108 2.912 0 4.316 1.768 4.316 3.744 0 3.64-4.264 5.928-7.228 6.448v.208h.312c1.3 0 3.9.104 3.9 2.964 0 3.848-5.512 7.436-10.348 7.436-2.704 0-5.98-1.144-5.98-4.472 0-.208 0-1.04.26-1.976l4.004-1.664c-.26 1.404-.312 1.82-.312 2.08 0 1.092.468 2.756 2.808 2.756s4.836-2.548 4.836-4.472c0-1.248-1.352-1.196-1.664-1.196-.468 0-.936 0-1.404.104l-.624-2.496c3.016-.988 7.02-2.652 7.02-5.252 0-.52-.364-.884-1.3-.884-1.508 0-4.836 2.236-5.72 2.86zm29.956-4.16l3.484 1.768-5.564 10.556c-.104.208-.312.676-.312 1.04 0 .208.104.832.78.832.988 0 2.184-.988 4.94-2.236l-1.144 3.536c-1.404.884-5.876 3.276-7.488 3.276-1.092 0-2.08-.676-2.288-2.028a2.827 2.827 0 010-.936c.156-1.404 1.144-3.016 2.86-5.512l-.208-.26c-3.848 3.12-8.58 8.736-12.012 8.736-.936 0-2.288-.572-2.288-2.652 0-1.872 1.248-4.42 8.684-18.356l3.536 1.82-6.084 11.492c-.26.468-.416.78-.468 1.092v.26c.052.52.364.624.572.624 2.704 0 11.128-9.828 13-13.052zm12.71-2.08l3.588 1.664-4.264 8.216c1.456-.468 4.68-.988 6.136-1.04h.988l3.38-7.124 3.64 1.56-4.784 9.672c-.208.468-1.04 2.236-1.04 2.756 0 .26.052.832.78.832 1.248 0 4.264-1.768 5.824-2.496l-1.04 3.536C445.72 36.584 443.9 37 443.172 37c-1.82 0-3.172-1.196-3.172-3.068 0-1.3.884-2.756 2.548-6.084-1.924.156-4.992.884-7.176 1.612l-3.848 7.904-4.212-1.3 10.192-19.916z" fill="#FF3E18"/></svg>

<svg width="452" height="38" viewBox="0 0 452 38" fill="none" xmlns="http://www.w3.org/2000/svg">
<path d="M18.748 2.316L23.064 4.708L15.836 17.604C16.304 17.084 16.824 16.772 17.552 16.772C18.02 16.772 18.54 16.824 19.008 16.876C19.476 16.928 19.944 16.928 20.412 16.876C26.652 16.46 33.516 5.488 35.856 0.807998L40.172 3.044C37.728 7.672 32.996 14.744 25.56 18.072C21.452 19.892 19.632 18.956 19.632 21.192C19.632 25.352 21.244 33.152 24.208 33.152C26.236 33.152 29.928 30.708 31.02 29.928L29.772 33.724C26.444 36.324 24.26 37 22.856 37C17.292 37 15.004 28.94 15.004 23.064C15.004 21.608 15.056 20.1 15.212 18.644L5.748 37.624L0.912 36.116L18.748 2.316ZM47.3651 15.524L48.1971 18.54C41.8531 20.568 36.7051 26.756 36.7051 30.864C36.7051 32.996 37.9531 33.62 38.9931 33.62C41.9571 33.62 46.1171 29.044 46.1171 22.908C46.1171 22.232 46.1171 21.556 46.0131 20.88L50.6931 19.58C50.8491 20.36 50.9011 21.088 50.9011 21.868C50.9011 29.46 44.4011 37 37.6411 37C33.0651 37 31.9731 34.088 31.9731 31.384C31.9731 25.092 38.2651 18.748 47.3651 15.524ZM68.5254 15.732L71.7494 17.552L67.1214 26.808C66.0294 28.992 65.7694 29.564 65.6654 30.24C65.6654 30.396 65.6134 30.552 65.6654 30.708C65.7174 30.968 65.8214 31.02 66.0294 31.02C68.2134 31.02 74.4534 23.688 78.0414 17.5L81.4734 19.32L76.5854 28.264C76.1694 29.044 75.2854 30.708 75.2854 31.436C75.2854 32.06 75.5974 32.424 76.1694 32.424C77.2614 32.424 78.6654 31.488 81.4734 30.188L80.3294 33.724C78.9254 34.66 74.9214 37 73.1014 37C71.3854 37 70.4494 35.804 70.4494 34.66C70.4494 32.996 71.8014 30.812 72.8414 29.148L72.3734 28.784C65.2494 36.324 63.5854 37.312 62.4414 37.312C61.1934 37.312 60.2054 36.376 60.2054 35.024C60.2054 33.152 62.3374 29.408 63.1694 28.056L62.5974 27.848C59.6854 31.332 55.4734 37 51.7294 37C50.2734 37 47.9854 36.22 47.9854 33.62C47.9854 32.788 48.0374 32.164 48.2974 31.488L52.3534 29.512C52.3014 29.772 52.0934 30.5 52.0934 31.176C52.0934 31.852 52.2494 32.736 53.2894 32.736C55.6294 32.736 64.4694 22.596 68.5254 15.732ZM100.86 18.228L104.344 19.996L98.7801 30.552C98.6761 30.76 98.4681 31.228 98.4681 31.592C98.4681 31.8 98.5721 32.424 99.2481 32.424C100.236 32.424 101.432 31.436 104.188 30.188L103.044 33.724C101.64 34.608 97.1681 37 95.5561 37C94.4641 37 93.4761 36.324 93.2681 34.972C93.2161 34.66 93.2161 34.348 93.2681 34.036C93.4241 32.632 94.4121 31.02 96.1281 28.524L95.9201 28.264C92.0721 31.384 87.3401 37 83.9081 37C82.9721 37 81.6201 36.428 81.6201 34.348C81.6201 32.476 82.8681 29.928 90.3041 15.992L93.8401 17.812L87.7561 29.304C87.4961 29.772 87.3401 30.084 87.2881 30.396C87.2881 30.5 87.2881 30.552 87.2881 30.656C87.3401 31.176 87.6521 31.28 87.8601 31.28C90.5641 31.28 98.9881 21.452 100.86 18.228ZM122.514 24.728L119.186 22.752C119.446 22.336 119.914 21.296 119.914 20.932C119.914 20.568 119.498 20.152 118.822 20.152C116.534 20.152 110.502 26.912 110.502 31.436C110.502 32.216 111.074 33.36 112.634 33.36C113.57 33.36 115.494 33.308 122.514 30.188L121.37 33.724C116.378 35.96 113.31 37 110.346 37C106.862 37 105.25 35.18 105.25 32.06C105.25 25.716 114.09 16.46 121.214 16.46C124.074 16.46 124.802 18.696 124.802 20.36C124.802 21.92 123.606 23.688 122.514 24.728ZM140.745 24.728L137.417 22.752C137.677 22.336 138.145 21.296 138.145 20.932C138.145 20.568 137.729 20.152 137.053 20.152C134.765 20.152 128.733 26.912 128.733 31.436C128.733 32.216 129.305 33.36 130.865 33.36C131.801 33.36 133.725 33.308 140.745 30.188L139.601 33.724C134.609 35.96 131.541 37 128.577 37C125.093 37 123.481 35.18 123.481 32.06C123.481 25.716 132.321 16.46 139.445 16.46C142.305 16.46 143.033 18.696 143.033 20.36C143.033 21.92 141.837 23.688 140.745 24.728ZM160.223 18.228L163.707 19.996L158.143 30.552C158.039 30.76 157.831 31.228 157.831 31.592C157.831 31.8 157.935 32.424 158.611 32.424C159.599 32.424 160.795 31.436 163.551 30.188L162.407 33.724C161.003 34.608 156.531 37 154.919 37C153.827 37 152.839 36.324 152.631 34.972C152.579 34.66 152.579 34.348 152.631 34.036C152.787 32.632 153.775 31.02 155.491 28.524L155.283 28.264C151.435 31.384 146.703 37 143.271 37C142.335 37 140.983 36.428 140.983 34.348C140.983 32.476 142.231 29.928 149.667 15.992L153.203 17.812L147.119 29.304C146.859 29.772 146.703 30.084 146.651 30.396C146.651 30.5 146.651 30.552 146.651 30.656C146.703 31.176 147.015 31.28 147.223 31.28C149.927 31.28 158.351 21.452 160.223 18.228ZM180.006 15.524L180.838 18.54C174.494 20.568 169.346 26.756 169.346 30.864C169.346 32.996 170.594 33.62 171.634 33.62C174.598 33.62 178.758 29.044 178.758 22.908C178.758 22.232 178.758 21.556 178.654 20.88L183.334 19.58C183.49 20.36 183.542 21.088 183.542 21.868C183.542 29.46 177.042 37 170.282 37C165.706 37 164.614 34.088 164.614 31.384C164.614 25.092 170.906 18.748 180.006 15.524ZM192.586 16.148L196.174 17.812L191.91 26.028C193.366 25.56 196.59 25.04 198.046 24.988C198.358 24.988 198.722 24.988 199.034 24.988L202.414 17.864L206.054 19.424L201.27 29.096C201.062 29.564 200.23 31.332 200.23 31.852C200.23 32.112 200.282 32.684 201.01 32.684C202.258 32.684 205.274 30.916 206.834 30.188L205.794 33.724C200.802 36.584 198.982 37 198.254 37C196.434 37 195.082 35.804 195.082 33.932C195.082 32.632 195.966 31.176 197.63 27.848C195.706 28.004 192.638 28.732 190.454 29.46L186.606 37.364L182.394 36.064L192.586 16.148ZM216.047 16.148L219.635 17.812L215.371 26.028C216.827 25.56 220.051 25.04 221.507 24.988C221.819 24.988 222.183 24.988 222.495 24.988L225.875 17.864L229.515 19.424L224.731 29.096C224.523 29.564 223.691 31.332 223.691 31.852C223.691 32.112 223.743 32.684 224.471 32.684C225.719 32.684 228.735 30.916 230.295 30.188L229.255 33.724C224.263 36.584 222.443 37 221.715 37C219.895 37 218.543 35.804 218.543 33.932C218.543 32.632 219.427 31.176 221.091 27.848C219.167 28.004 216.099 28.732 213.915 29.46L210.067 37.364L205.855 36.064L216.047 16.148ZM238.572 16.044L242.108 17.864C235.504 28.784 234.88 31.02 234.88 32.32C234.88 33.516 235.608 34.088 236.284 34.088C238.832 34.088 242.056 29.252 242.264 27.692C242.264 27.64 242.264 27.64 242.264 27.588C242.264 27.484 242.16 27.38 242.056 27.38C242.004 27.38 241.9 27.38 241.848 27.38C240.236 27.588 240.028 27.64 239.82 27.64C239.612 27.64 239.352 27.38 239.248 27.172L238.728 25.976C238.26 24.832 241.64 23.272 242.732 23.272C244.344 23.272 245.28 23.48 246.06 24.208C249.492 23.792 253.964 21.4 255.576 18.228L258.956 20.048L254.224 28.524C253.86 29.148 252.768 31.28 252.768 31.956C252.768 32.528 252.976 32.84 253.6 32.84C254.38 32.84 256.356 31.904 258.8 30.188L257.656 33.724C255.836 35.232 252.768 37 250.428 37C248.608 37 247.672 36.064 247.672 34.504C247.672 32.216 250.74 26.964 252.56 24.78L252.248 24.52C249.856 25.56 250.636 25.716 248.296 26.288C247.776 26.444 247.308 26.548 247.1 26.652C246.84 26.756 246.892 26.912 246.892 27.172C246.84 30.552 241.328 37 235.92 37C233.112 37 230.824 34.868 230.824 32.112C230.824 28.16 235.608 20.62 238.572 16.044ZM278.341 18.228L281.825 19.996L276.261 30.552C276.157 30.76 275.949 31.228 275.949 31.592C275.949 31.8 276.053 32.424 276.729 32.424C277.717 32.424 278.913 31.436 281.669 30.188L280.525 33.724C279.121 34.608 274.649 37 273.037 37C271.945 37 270.957 36.324 270.749 34.972C270.697 34.66 270.697 34.348 270.749 34.036C270.905 32.632 271.893 31.02 273.609 28.524L273.401 28.264C269.553 31.384 264.821 37 261.389 37C260.453 37 259.101 36.428 259.101 34.348C259.101 32.476 260.349 29.928 267.785 15.992L271.321 17.812L265.237 29.304C264.977 29.772 264.821 30.084 264.769 30.396C264.769 30.5 264.769 30.552 264.769 30.656C264.821 31.176 265.133 31.28 265.341 31.28C268.045 31.28 276.469 21.452 278.341 18.228ZM271.685 6.32L275.949 6.112C275.949 7.256 276.209 9.648 278.809 9.648C279.381 9.648 281.461 9.336 284.529 5.644L286.609 7.308C283.177 10.688 281.461 12.612 277.197 12.612C272.153 12.612 271.737 8.452 271.685 7.412C271.685 7.048 271.685 6.684 271.685 6.32ZM311.768 15.732L314.992 17.552L310.364 26.808C309.272 28.992 309.012 29.564 308.908 30.24C308.908 30.396 308.856 30.552 308.908 30.708C308.96 30.968 309.064 31.02 309.272 31.02C311.456 31.02 317.696 23.688 321.284 17.5L324.716 19.32L319.828 28.264C319.412 29.044 318.528 30.708 318.528 31.436C318.528 32.06 318.84 32.424 319.412 32.424C320.504 32.424 321.908 31.488 324.716 30.188L323.572 33.724C322.168 34.66 318.164 37 316.344 37C314.628 37 313.692 35.804 313.692 34.66C313.692 32.996 315.044 30.812 316.084 29.148L315.616 28.784C308.492 36.324 306.828 37.312 305.684 37.312C304.436 37.312 303.448 36.376 303.448 35.024C303.448 33.152 305.58 29.408 306.412 28.056L305.84 27.848C302.928 31.332 298.716 37 294.972 37C293.516 37 291.228 36.22 291.228 33.62C291.228 32.788 291.28 32.164 291.54 31.488L295.596 29.512C295.544 29.772 295.336 30.5 295.336 31.176C295.336 31.852 295.492 32.736 296.532 32.736C298.872 32.736 307.712 22.596 311.768 15.732ZM345.61 17.656L349.354 19.632L344.778 28.576C344.518 29.096 343.582 31.124 343.582 31.696C343.582 32.008 343.738 32.632 344.258 32.632C345.142 32.632 348.938 30.604 349.666 30.188L348.574 33.724C347.066 34.868 343.686 37 341.762 37C340.098 37 338.85 35.856 338.85 34.504C338.85 33.256 339.63 31.956 340.098 30.76L339.89 30.708C338.278 31.852 334.118 37 329.75 37C327.878 37 325.59 35.492 325.59 31.748C325.59 26.912 334.014 16.928 340.566 16.928C343.062 16.928 344.414 18.072 345.038 18.8L345.61 17.656ZM341.346 25.768L343.998 20.776C343.738 20.464 343.01 19.684 341.658 19.684C337.654 19.684 330.842 27.12 330.842 30.656C330.842 32.424 331.622 32.892 332.35 32.892C334.586 32.892 340.358 27.64 341.346 25.768ZM354.787 21.92L353.435 19.684C357.543 17.188 360.195 16.876 361.495 16.876C363.731 16.876 364.459 18.124 364.459 19.476C364.459 21.92 362.379 23.74 360.507 25.508C355.307 30.5 355.099 31.696 355.099 32.216C355.099 32.632 355.515 33.204 356.243 33.204C357.439 33.204 361.131 31.488 363.263 30.188L362.171 33.724C360.351 34.972 356.503 37 353.799 37C351.043 37 349.847 35.492 349.847 33.828C349.847 31.956 351.147 29.148 356.139 24.364C357.283 23.272 359.363 21.66 359.363 20.828C359.363 20.724 359.311 20.464 358.999 20.36C358.791 20.308 358.635 20.308 358.427 20.36C357.543 20.516 356.815 20.932 354.787 21.92ZM384.153 17.656L387.897 19.632L383.321 28.576C383.061 29.096 382.125 31.124 382.125 31.696C382.125 32.008 382.281 32.632 382.801 32.632C383.685 32.632 387.481 30.604 388.209 30.188L387.117 33.724C385.609 34.868 382.229 37 380.305 37C378.641 37 377.393 35.856 377.393 34.504C377.393 33.256 378.173 31.956 378.641 30.76L378.433 30.708C376.821 31.852 372.661 37 368.293 37C366.421 37 364.133 35.492 364.133 31.748C364.133 26.912 372.557 16.928 379.109 16.928C381.605 16.928 382.957 18.072 383.581 18.8L384.153 17.656ZM379.889 25.768L382.541 20.776C382.281 20.464 381.553 19.684 380.201 19.684C376.197 19.684 369.385 27.12 369.385 30.656C369.385 32.424 370.165 32.892 370.893 32.892C373.129 32.892 378.901 27.64 379.889 25.768ZM394.838 22.388L393.122 20.308C395.41 18.176 398.998 16.2 401.962 16.2C404.874 16.2 406.278 17.968 406.278 19.944C406.278 23.584 402.014 25.872 399.05 26.392V26.6H399.362C400.662 26.6 403.262 26.704 403.262 29.564C403.262 33.412 397.75 37 392.914 37C390.21 37 386.934 35.856 386.934 32.528C386.934 32.32 386.934 31.488 387.194 30.552L391.198 28.888C390.938 30.292 390.886 30.708 390.886 30.968C390.886 32.06 391.354 33.724 393.694 33.724C396.034 33.724 398.53 31.176 398.53 29.252C398.53 28.004 397.178 28.056 396.866 28.056C396.398 28.056 395.93 28.056 395.462 28.16L394.838 25.664C397.854 24.676 401.858 23.012 401.858 20.412C401.858 19.892 401.494 19.528 400.558 19.528C399.05 19.528 395.722 21.764 394.838 22.388ZM424.794 18.228L428.278 19.996L422.714 30.552C422.61 30.76 422.402 31.228 422.402 31.592C422.402 31.8 422.506 32.424 423.182 32.424C424.17 32.424 425.366 31.436 428.122 30.188L426.978 33.724C425.574 34.608 421.102 37 419.49 37C418.398 37 417.41 36.324 417.202 34.972C417.15 34.66 417.15 34.348 417.202 34.036C417.358 32.632 418.346 31.02 420.062 28.524L419.854 28.264C416.006 31.384 411.274 37 407.842 37C406.906 37 405.554 36.428 405.554 34.348C405.554 32.476 406.802 29.928 414.238 15.992L417.774 17.812L411.69 29.304C411.43 29.772 411.274 30.084 411.222 30.396C411.222 30.5 411.222 30.552 411.222 30.656C411.274 31.176 411.586 31.28 411.794 31.28C414.498 31.28 422.922 21.452 424.794 18.228ZM437.504 16.148L441.092 17.812L436.828 26.028C438.284 25.56 441.508 25.04 442.964 24.988C443.276 24.988 443.64 24.988 443.952 24.988L447.332 17.864L450.972 19.424L446.188 29.096C445.98 29.564 445.148 31.332 445.148 31.852C445.148 32.112 445.2 32.684 445.928 32.684C447.176 32.684 450.192 30.916 451.752 30.188L450.712 33.724C445.72 36.584 443.9 37 443.172 37C441.352 37 440 35.804 440 33.932C440 32.632 440.884 31.176 442.548 27.848C440.624 28.004 437.556 28.732 435.372 29.46L431.524 37.364L427.312 36.064L437.504 16.148Z" fill="#FF3E18"/>
</svg>
